X: 14
T: Whiskey You're the Devil    [C]
C: Jerry Barrington 1873
O: Ireland
M: C
L: 1/16
Z: 2019 John Chambers <jc@trillian.mit.edu>
K: C
G2  \
| "C"C2C2C2D2 E2G2G2G2 | "Dm"A2D2D2E2 "G7"F2G2A2G2 \
| "F"c3dc2A2 "C"A2G2G2E2 | "D7"D2D2D2E2 "G7"D2B,2A,2G,2 |]
| "C"C4E3D C6GE | CCC2 CDEF G6 GE | "Dm"DDD2 DEFG A4 "G7"z2G2 \
| "F"c2d2c2A2 "C"A2G2"F"c2A2 | "C"G2E2 "G7"D3E "C"C4 z4 |]
[| "C"C2C2 C3D E2G4G2 | "F"A2G2A2B2 c4 z4 \
| "F"c3dc2A2 "C"A2G4E2 | "D7"D3D D2E2 "G7"D6 G2 |
| "C"C2C2C2D2 E2G2G2G2 | "F"A2G2A2B2 c4c3B \
| "C"A2G2 "F"[c3F3]B "C"A2G2 "Am"E2C2 | "Dm"D4-"G7"D4 "C"C6 |]

%%sep 1 1 500
%%sep 1 1 500

